docs/src/static/backpack-logo-white.svg

<svg viewBox="0 0 602 131" xmlns="http://www.w3.org/2000/svg"><g fill="none" fill-rule="evenodd"><g fill="#fff" fill-rule="nonzero" transform="translate(145 34)"><path d="m50.9 22.3c0 3.1-1 5.9-3 8.6s-4.8 4.7-8.4 5.9c4.1.7 7.6 2.8 10.4 6.1s4.2 6.8 4.2 10.5c0 5.9-2.3 10.7-6.8 14.3s-10.5 5.4-18 5.4h-29.2v-69.9l26.2.1c7.2 0 13.1 1.7 17.7 5.1s6.9 8 6.9 13.9zm-35.3 10.2h6.4c8.8 0 13.3-3.2 13.3-9.6 0-2.4-.8-4.2-2.5-5.5s-3.8-1.9-6.3-1.9h-10.8v17zm8.1 10.8h-8.1v17.5h13.8c2.7 0 4.8-.7 6.5-2.1s2.5-3.3 2.5-5.6c0-2.9-1-5.3-3-7.1-2.1-1.8-6-2.7-11.7-2.7z"/><path d="m98.2 21.9h14.9v51.1h-14.9v-7.5c-4 5.7-9.3 8.6-16.1 8.6-7.6 0-13.6-2.6-18.1-7.7s-6.8-11.5-6.8-19.2c0-7.5 2.2-13.8 6.5-18.8 4.4-5.1 10.4-7.6 18.1-7.6 3.3 0 6.4.7 9.3 2.2s5.2 3.4 7 5.9v-7zm-26.1 25.4c0 4.2 1.2 7.7 3.6 10.5s5.6 4.2 9.6 4.2c3.9 0 7-1.2 9.6-3.6 2.5-2.4 3.8-5.9 3.8-10.3 0-4.7-1.3-8.4-3.8-11.1-2.5-2.8-5.9-4.1-10-4.1-3.9 0-7 1.4-9.3 4.1s-3.5 6.2-3.5 10.3z"/><path d="m125.8 66.5c-5.2-5-7.8-11.4-7.8-19.1s2.6-14.1 7.8-19.1 12.1-7.5 20.8-7.5c7.1 0 14.1 2.5 20.9 7.6l-6.8 10.9c-3.8-3.4-8.3-5.1-13.5-5.1-4.3 0-7.8 1.2-10.5 3.7s-4 5.7-4 9.6 1.3 7.1 4 9.6 6.1 3.7 10.5 3.7c5.2 0 9.7-1.7 13.5-5.1l6.8 10.9c-6.8 5.1-13.8 7.6-20.9 7.6-8.6-.2-15.6-2.7-20.8-7.7z"/><path d="m187 42.6 14.6-20.7h16.4v2l-17 21.3 6.7 10.7c2 3.1 4.3 4.6 7 4.6 2 0 3.8-.6 5.5-1.8l5.6 10.5c-3.7 3.3-8.2 5-13.4 5-6.5 0-11.6-2.6-15.2-7.8l-10.2-16.6v23.2h-14.9v-72.1h14.9z"/><path d="m242.6 96.4h-14.9v-74.5h14.9v7.5c4-5.7 9.3-8.6 16.1-8.6 7.6 0 13.6 2.6 18.2 7.7 4.5 5.1 6.8 11.5 6.8 19.2 0 7.5-2.2 13.8-6.5 18.8-4.4 5.1-10.4 7.6-18.1 7.6-3.3 0-6.4-.7-9.3-2.2s-5.2-3.4-7-5.9v30.4zm26.1-48.8c0-4.2-1.2-7.7-3.6-10.5s-5.6-4.2-9.6-4.2c-3.9 0-7 1.2-9.6 3.6-2.5 2.4-3.8 5.9-3.8 10.3 0 4.7 1.3 8.4 3.8 11.1 2.5 2.8 5.8 4.1 10 4.1 3.9 0 7-1.4 9.3-4.1 2.4-2.7 3.5-6.2 3.5-10.3z"/><path d="m329 21.9h14.9v51.1h-14.9v-7.5c-4 5.7-9.3 8.6-16.1 8.6-7.6 0-13.6-2.6-18.1-7.7s-6.8-11.5-6.8-19.2c0-7.5 2.2-13.8 6.5-18.8 4.4-5.1 10.4-7.6 18.1-7.6 3.3 0 6.4.7 9.3 2.2s5.2 3.4 7 5.9v-7zm-26.2 25.4c0 4.2 1.2 7.7 3.6 10.5s5.6 4.2 9.6 4.2c3.9 0 7-1.2 9.6-3.6s3.8-5.9 3.8-10.3c0-4.7-1.3-8.4-3.8-11.1s-5.9-4.1-10-4.1c-3.9 0-7 1.4-9.3 4.1s-3.5 6.2-3.5 10.3z"/><path d="m356 66.5c-5.2-5-7.8-11.4-7.8-19.1s2.6-14.1 7.8-19.1 12.1-7.5 20.8-7.5c7.1 0 14.1 2.5 20.9 7.6l-6.8 10.9c-3.8-3.4-8.3-5.1-13.5-5.1-4.3 0-7.8 1.2-10.5 3.7s-4 5.7-4 9.6 1.3 7.1 4 9.6 6.1 3.7 10.5 3.7c5.2 0 9.7-1.7 13.5-5.1l6.8 10.9c-6.8 5.1-13.8 7.6-20.9 7.6-8.6-.2-15.5-2.7-20.8-7.7z"/><path d="m417.2 42.6 14.6-20.7h16.5v2l-17 21.3 6.7 10.7c2 3.1 4.3 4.6 7 4.6 2 0 3.8-.6 5.5-1.8l5.6 10.5c-3.7 3.3-8.2 5-13.4 5-6.5 0-11.6-2.6-15.2-7.8l-10.3-16.5v23.1h-14.9v-72.1h14.9z"/></g><path d="m51.4 5.3c-5.8 0-10.1.8-11.2 6.5h22.5c-1.2-5.7-3.9-6.5-11.3-6.5z"/><path d="m51.4 32.5c-.7 0-1.3.1-1.7.3s-.6.5-.6.9v9.5c0 .6.2 1.2.7 1.7.5.4 1 .7 1.6.7s1.2-.2 1.7-.7c.4-.5.7-1 .7-1.6v-9.5c0-.2-.1-.6-.6-.9-.4-.3-1-.4-1.8-.4z"/><path d="m42.4 46.2c.3.5.8.9 1.4 1.1.2.1.4.1.6.1.4 0 .8-.1 1.2-.3.5-.3.9-.8 1.1-1.4s.1-1.2-.2-1.8l-4.8-8.2c-.2-.3-.5-.4-.9-.4-.4 0-1 .2-1.6.6s-1.1.7-1.3 1.1c-.2.3-.3.7-.1 1z"/><path d="m38.1 52.2c.4.2.8.3 1.2.3.2 0 .4 0 .6-.1.6-.2 1.1-.6 1.4-1.1s.4-1.1.2-1.7c-.1-.6-.5-1.1-1.1-1.4l-8.2-4.8c-.1-.1-.3-.1-.4-.1-.2 0-.4.1-.6.2-.3.2-.7.7-1.1 1.3s-.6 1.2-.6 1.6.1.8.4.9z"/><path d="m4.9 75.5v24.5c0 1.4 1.1 2.4 2.4 2.4h2.4v-29.4h-2.4c-1.3 0-2.4 1.1-2.4 2.5z"/><path d="m61.3 49.6c-.1.6-.1 1.2.2 1.7s.8.9 1.4 1.1c.2 0 .4.1.6.1.4 0 .8-.1 1.2-.3l8.2-4.8c.3-.2.5-.5.4-.9 0-.4-.2-1-.6-1.6s-.7-1.1-1.1-1.3c-.2-.1-.4-.2-.6-.2s-.3 0-.4.1l-8.2 4.8c-.6.2-.9.7-1.1 1.3z"/><path d="m61.2 35.6-4.8 8.2c-.3.6-.4 1.2-.2 1.8s.6 1.1 1.1 1.4c.4.2.8.3 1.2.3.2 0 .4 0 .6-.1.6-.2 1.1-.6 1.4-1.1l4.8-8.2c.2-.3.1-.7-.1-1-.2-.4-.7-.7-1.3-1.1s-1.2-.6-1.7-.6c-.6 0-.9.2-1 .4z"/><path d="m28 61.3c.2.2.4.3.7.3h.2c1.2-.4 5.7-1.6 12.2-2.3h.6c1 0 1.9.3 2.8.7l5.3 3c.5.3 1 .4 1.6.4s1.1-.1 1.6-.4l5.3-3c.8-.5 1.8-.7 2.8-.7h.6c6.5.8 11 2 12.2 2.3h.2c.3 0 .6-.1.7-.3.2-.2.5-.7.7-1.4.2-.5.2-1.1.2-1.6 0-.4-.3-.7-.7-.8-2.5-.7-11.6-3.1-23.7-3.1s-21.2 2.4-23.7 3.1c-.4.1-.6.4-.7.8 0 .3 0 .9.2 1.6.4.7.7 1.1.9 1.4z"/><path d="m95.5 73h-2.5v29.4h2.4c1.4 0 2.4-1.1 2.4-2.4v-24.5c.1-1.4-1-2.5-2.3-2.5z"/><g fill-rule="nonzero"><path d="m37.8 100c0 1.4-1.1 2.4-2.5 2.4s-2.4-1.1-2.4-2.4v-7.4h-8.5v17.1h53.9v-17.1h-40.5z" fill="#e18b96"/><path d="m95.5 68.1h-2.4v-24.5c0-14.8-10.2-27.6-24.6-31-.9-9.4-7.8-12.3-17-12.3-11.2 0-16.3 4.1-17 12.3-14.4 3.4-24.6 16.2-24.6 31v24.5h-2.4c-4 0-7.3 3.3-7.4 7.4v24.5c0 4 3.3 7.3 7.4 7.3h2.4v4.9c0 6.8 5.5 12.3 12.3 12.3h58.8c6.8 0 12.2-5.5 12.3-12.3v-4.9h2.4c4 0 7.3-3.3 7.4-7.3v-24.5c-.3-4.1-3.6-7.4-7.6-7.4zm-85.7 34.3h-2.4c-1.4 0-2.4-1.1-2.4-2.4v-24.5c0-1.4 1.1-2.4 2.4-2.4h2.4zm60.8-59c.1-.1.3-.1.4-.1.2 0 .4.1.6.2.4.2.7.7 1.1 1.3s.6 1.2.6 1.6-.1.8-.4.9l-8.2 4.8c-.4.2-.8.3-1.2.3-.2 0-.4 0-.6-.1-.6-.2-1.1-.6-1.4-1.1s-.4-1.1-.2-1.7.6-1.1 1.1-1.4zm-5.5-6.5c.2.3.3.7.1 1l-4.8 8.2c-.3.5-.8.9-1.4 1.1-.2.1-.4.1-.6.1-.4 0-.8-.1-1.2-.3-.5-.3-.9-.8-1.1-1.4s-.1-1.2.2-1.8l4.8-8.2c.2-.3.5-.4.8-.4.5 0 1.1.2 1.7.6.8.4 1.3.8 1.5 1.1zm-13.7-31.6c7.4 0 10.1.8 11.3 6.5h-22.5c1.2-5.7 5.4-6.5 11.2-6.5zm2.3 28.4v9.5c0 .6-.2 1.2-.7 1.6-.4.4-1 .7-1.7.7-.6 0-1.2-.2-1.6-.7-.4-.4-.7-1-.7-1.7v-9.5c0-.4.2-.7.6-.9s1-.3 1.7-.3 1.3.1 1.7.3c.6.4.7.7.7 1zm-16 3.2c.2-.4.7-.7 1.3-1.1s1.2-.6 1.6-.6c.5 0 .8.2.9.4l4.8 8.2c.3.6.4 1.2.2 1.8s-.6 1.1-1.1 1.4c-.4.2-.8.3-1.2.3-.2 0-.4 0-.6-.1-.6-.2-1.1-.6-1.4-1.1l-4.8-8.2c.1-.3.1-.7.3-1zm-7.6 7.9c.4-.6.8-1.1 1.1-1.3.2-.1.4-.2.6-.2s.3 0 .4.1l8.2 4.8c.5.3 1 .8 1.1 1.4s.1 1.2-.2 1.7-.8.9-1.4 1.1c-.2 0-.4.1-.6.1-.4 0-.8-.1-1.2-.3l-8.2-4.8c-.3-.2-.5-.5-.4-.9 0-.5.2-1 .6-1.7zm-2.4 12.7c2.5-.7 11.6-3.1 23.7-3.1s21.2 2.4 23.7 3.1c.4.1.6.4.7.8 0 .5 0 1-.2 1.6-.2.7-.5 1.2-.7 1.4s-.4.3-.7.3h-.2c-1.2-.4-5.8-1.6-12.2-2.3-.2 0-.4 0-.6 0-1 0-1.9.3-2.8.7l-5.3 3c-.5.3-1 .4-1.6.4s-1.1-.1-1.6-.4l-5.3-3c-.8-.5-1.8-.7-2.8-.7-.2 0-.4 0-.6 0-6.5.8-11 2-12.2 2.3h-.2c-.3 0-.6-.1-.7-.3-.2-.3-.5-.7-.7-1.4s-.2-1.2-.2-1.6c-.1-.3.1-.7.5-.8zm55.5 54.7c0 1.4-1.1 2.5-2.4 2.5h-58.8c-1.4 0-2.5-1.1-2.5-2.5v-34.3c0-1.3 1.1-2.4 2.5-2.4h58.8c1.4 0 2.4 1.1 2.4 2.4zm14.7-12.2c0 1.4-1.1 2.4-2.4 2.4h-2.5v-29.4h2.4c1.4 0 2.4 1.1 2.4 2.4v24.6z" fill="#d1435b"/><path d="m24.5 80.4h53.9v7.3h-53.9z" fill="#e18b96"/></g></g></svg>

<svg viewBox="0 0 602 131"  xmlns="http://www.w3.org/2000/svg" xmlns:xlink="http://www.w3.org/1999/xlink">
    <g id="Page-1" stroke="none" stroke-width="1" fill="none" fill-rule="evenodd">
        <g id="Backpack_Logo_Horizontal_White">
            <g id="Group" transform="translate(145.000000, 34.000000)" fill="#FFFFFF" fill-rule="nonzero">
                <path d="M50.9,22.3 C50.9,25.4 49.9,28.2 47.9,30.9 C45.9,33.6 43.1,35.6 39.5,36.8 C43.6,37.5 47.1,39.6 49.9,42.9 C52.7,46.2 54.1,49.7 54.1,53.4 C54.1,59.3 51.8,64.1 47.3,67.7 C42.8,71.3 36.8,73.1 29.3,73.1 L0.1,73.1 L0.1,3.2 L26.3,3.3 C33.5,3.3 39.4,5 44,8.4 C48.6,11.8 50.9,16.4 50.9,22.3 Z M15.6,32.5 L22,32.5 C30.8,32.5 35.3,29.3 35.3,22.9 C35.3,20.5 34.5,18.7 32.8,17.4 C31.1,16.1 29,15.5 26.5,15.5 L15.7,15.5 L15.7,32.5 L15.6,32.5 Z M23.7,43.3 L15.6,43.3 L15.6,60.8 L29.4,60.8 C32.1,60.8 34.2,60.1 35.9,58.7 C37.6,57.3 38.4,55.4 38.4,53.1 C38.4,50.2 37.4,47.8 35.4,46 C33.3,44.2 29.4,43.3 23.7,43.3 Z" id="Shape"></path>
                <path d="M98.2,21.9 L113.1,21.9 L113.1,73 L98.2,73 L98.2,65.5 C94.2,71.2 88.9,74.1 82.1,74.1 C74.5,74.1 68.5,71.5 64,66.4 C59.5,61.3 57.2,54.9 57.2,47.2 C57.2,39.7 59.4,33.4 63.7,28.4 C68.1,23.3 74.1,20.8 81.8,20.8 C85.1,20.8 88.2,21.5 91.1,23 C94,24.5 96.3,26.4 98.1,28.9 L98.1,21.9 L98.2,21.9 Z M72.1,47.3 C72.1,51.5 73.3,55 75.7,57.8 C78.1,60.6 81.3,62 85.3,62 C89.2,62 92.3,60.8 94.9,58.4 C97.4,56 98.7,52.5 98.7,48.1 C98.7,43.4 97.4,39.7 94.9,37 C92.4,34.2 89,32.9 84.9,32.9 C81,32.9 77.9,34.3 75.6,37 C73.3,39.7 72.1,43.2 72.1,47.3 Z" id="Shape"></path>
                <path d="M125.8,66.5 C120.6,61.5 118,55.1 118,47.4 C118,39.7 120.6,33.3 125.8,28.3 C131,23.3 137.9,20.8 146.6,20.8 C153.7,20.8 160.7,23.3 167.5,28.4 L160.7,39.3 C156.9,35.9 152.4,34.2 147.2,34.2 C142.9,34.2 139.4,35.4 136.7,37.9 C134,40.4 132.7,43.6 132.7,47.5 C132.7,51.4 134,54.6 136.7,57.1 C139.4,59.6 142.8,60.8 147.2,60.8 C152.4,60.8 156.9,59.1 160.7,55.7 L167.5,66.6 C160.7,71.7 153.7,74.2 146.6,74.2 C138,74 131,71.5 125.8,66.5 Z" id="Path"></path>
                <path d="M187,42.6 L201.6,21.9 L218,21.9 L218,23.9 L201,45.2 L207.7,55.9 C209.7,59 212,60.5 214.7,60.5 C216.7,60.5 218.5,59.9 220.2,58.7 L225.8,69.2 C222.1,72.5 217.6,74.2 212.4,74.2 C205.9,74.2 200.8,71.6 197.2,66.4 L187,49.8 L187,73 L172.1,73 L172.1,0.9 L187,0.9 L187,42.6 Z" id="Path"></path>
                <path d="M242.6,96.4 L227.7,96.4 L227.7,21.9 L242.6,21.9 L242.6,29.4 C246.6,23.7 251.9,20.8 258.7,20.8 C266.3,20.8 272.3,23.4 276.9,28.5 C281.4,33.6 283.7,40 283.7,47.7 C283.7,55.2 281.5,61.5 277.2,66.5 C272.8,71.6 266.8,74.1 259.1,74.1 C255.8,74.1 252.7,73.4 249.8,71.9 C246.9,70.4 244.6,68.5 242.8,66 L242.8,96.4 L242.6,96.4 Z M268.7,47.6 C268.7,43.4 267.5,39.9 265.1,37.1 C262.7,34.3 259.5,32.9 255.5,32.9 C251.6,32.9 248.5,34.1 245.9,36.5 C243.4,38.9 242.1,42.4 242.1,46.8 C242.1,51.5 243.4,55.2 245.9,57.9 C248.4,60.7 251.7,62 255.9,62 C259.8,62 262.9,60.6 265.2,57.9 C267.6,55.2 268.7,51.7 268.7,47.6 Z" id="Shape"></path>
                <path d="M329,21.9 L343.9,21.9 L343.9,73 L329,73 L329,65.5 C325,71.2 319.7,74.1 312.9,74.1 C305.3,74.1 299.3,71.5 294.8,66.4 C290.3,61.3 288,54.9 288,47.2 C288,39.7 290.2,33.4 294.5,28.4 C298.9,23.3 304.9,20.8 312.6,20.8 C315.9,20.8 319,21.5 321.9,23 C324.8,24.5 327.1,26.4 328.9,28.9 L328.9,21.9 L329,21.9 Z M302.8,47.3 C302.8,51.5 304,55 306.4,57.8 C308.8,60.6 312,62 316,62 C319.9,62 323,60.8 325.6,58.4 C328.2,56 329.4,52.5 329.4,48.1 C329.4,43.4 328.1,39.7 325.6,37 C323.1,34.3 319.7,32.9 315.6,32.9 C311.7,32.9 308.6,34.3 306.3,37 C304,39.7 302.8,43.2 302.8,47.3 Z" id="Shape"></path>
                <path d="M356,66.5 C350.8,61.5 348.2,55.1 348.2,47.4 C348.2,39.7 350.8,33.3 356,28.3 C361.2,23.3 368.1,20.8 376.8,20.8 C383.9,20.8 390.9,23.3 397.7,28.4 L390.9,39.3 C387.1,35.9 382.6,34.2 377.4,34.2 C373.1,34.2 369.6,35.4 366.9,37.9 C364.2,40.4 362.9,43.6 362.9,47.5 C362.9,51.4 364.2,54.6 366.9,57.1 C369.6,59.6 373,60.8 377.4,60.8 C382.6,60.8 387.1,59.1 390.9,55.7 L397.7,66.6 C390.9,71.7 383.9,74.2 376.8,74.2 C368.2,74 361.3,71.5 356,66.5 Z" id="Path"></path>
                <path d="M417.2,42.6 L431.8,21.9 L448.3,21.9 L448.3,23.9 L431.3,45.2 L438,55.9 C440,59 442.3,60.5 445,60.5 C447,60.5 448.8,59.9 450.5,58.7 L456.1,69.2 C452.4,72.5 447.9,74.2 442.7,74.2 C436.2,74.2 431.1,71.6 427.5,66.4 L417.2,49.9 L417.2,73 L402.3,73 L402.3,0.9 L417.2,0.9 L417.2,42.6 L417.2,42.6 Z" id="Path"></path>
            </g>
            <g id="Group">
                <path d="M51.4,5.3 C45.6,5.3 41.3,6.1 40.2,11.8 L62.7,11.8 C61.5,6.1 58.8,5.3 51.4,5.3 Z" id="Path"></path>
                <path d="M51.4,32.5 C50.7,32.5 50.1,32.6 49.7,32.8 C49.3,33 49.1,33.3 49.1,33.7 L49.1,43.2 C49.1,43.8 49.3,44.4 49.8,44.9 C50.3,45.3 50.8,45.6 51.4,45.6 C52,45.6 52.6,45.4 53.1,44.9 C53.5,44.4 53.8,43.9 53.8,43.3 L53.8,33.8 C53.8,33.6 53.7,33.2 53.2,32.9 C52.8,32.6 52.2,32.5 51.4,32.5 Z" id="Path"></path>
                <path d="M42.4,46.2 C42.7,46.7 43.2,47.1 43.8,47.3 C44,47.4 44.2,47.4 44.4,47.4 C44.8,47.4 45.2,47.3 45.6,47.1 C46.1,46.8 46.5,46.3 46.7,45.7 C46.9,45.1 46.8,44.5 46.5,43.9 L41.7,35.7 C41.5,35.4 41.2,35.3 40.8,35.3 C40.8,35.3 40.8,35.3 40.8,35.3 C40.4,35.3 39.8,35.5 39.2,35.9 C38.6,36.3 38.1,36.6 37.9,37 C37.7,37.3 37.6,37.7 37.8,38 L42.4,46.2 Z" id="Path"></path>
                <path d="M38.1,52.2 C38.5,52.4 38.9,52.5 39.3,52.5 C39.5,52.5 39.7,52.5 39.9,52.4 C40.5,52.2 41,51.8 41.3,51.3 C41.6,50.8 41.7,50.2 41.5,49.6 C41.4,49 41,48.5 40.4,48.2 L32.2,43.4 C32.1,43.3 31.9,43.3 31.8,43.3 C31.6,43.3 31.4,43.4 31.2,43.5 C30.9,43.7 30.5,44.2 30.1,44.8 C29.7,45.4 29.5,46 29.5,46.4 C29.5,46.8 29.6,47.2 29.9,47.3 L38.1,52.2 Z" id="Path"></path>
                <path d="M4.9,75.5 L4.9,100 C4.9,101.4 6,102.4 7.3,102.4 L9.7,102.4 L9.7,73 L7.3,73 C6,73 4.9,74.1 4.9,75.5 Z" id="Path"></path>
                <path d="M61.3,49.6 C61.2,50.2 61.2,50.8 61.5,51.3 C61.8,51.8 62.3,52.2 62.9,52.4 C63.1,52.4 63.3,52.5 63.5,52.5 C63.9,52.5 64.3,52.4 64.7,52.2 L72.9,47.4 C73.2,47.2 73.4,46.9 73.3,46.5 C73.3,46.1 73.1,45.5 72.7,44.9 C72.3,44.3 72,43.8 71.6,43.6 C71.4,43.5 71.2,43.4 71,43.4 C70.8,43.4 70.7,43.4 70.6,43.5 L62.4,48.3 C61.8,48.5 61.5,49 61.3,49.6 Z" id="Path"></path>
                <path d="M61.2,35.6 L56.4,43.8 C56.1,44.4 56,45 56.2,45.6 C56.4,46.2 56.8,46.7 57.3,47 C57.7,47.2 58.1,47.3 58.5,47.3 C58.7,47.3 58.9,47.3 59.1,47.2 C59.7,47 60.2,46.6 60.5,46.1 L65.3,37.9 C65.5,37.6 65.4,37.2 65.2,36.9 C65,36.5 64.5,36.2 63.9,35.8 C63.3,35.4 62.7,35.2 62.2,35.2 C61.6,35.2 61.3,35.4 61.2,35.6 Z" id="Path"></path>
                <path d="M28,61.3 C28.2,61.5 28.4,61.6 28.7,61.6 L28.9,61.6 C30.1,61.2 34.6,60 41.1,59.3 C41.3,59.3 41.5,59.3 41.7,59.3 C42.7,59.3 43.6,59.6 44.5,60 L49.8,63 C50.3,63.3 50.8,63.4 51.4,63.4 C52,63.4 52.5,63.3 53,63 L58.3,60 C59.1,59.5 60.1,59.3 61.1,59.3 C61.3,59.3 61.5,59.3 61.7,59.3 C68.2,60.1 72.7,61.3 73.9,61.6 L74.1,61.6 C74.4,61.6 74.7,61.5 74.8,61.3 C75,61.1 75.3,60.6 75.5,59.9 C75.7,59.4 75.7,58.8 75.7,58.3 C75.7,57.9 75.4,57.6 75,57.5 C72.5,56.8 63.4,54.4 51.3,54.4 C39.2,54.4 30.1,56.8 27.6,57.5 C27.2,57.6 27,57.9 26.9,58.3 C26.9,58.6 26.9,59.2 27.1,59.9 C27.5,60.6 27.8,61 28,61.3 Z" id="Path"></path>
                <path d="M95.5,73 L93,73 L93,102.4 L95.4,102.4 C96.8,102.4 97.8,101.3 97.8,100 L97.8,75.5 C97.9,74.1 96.8,73 95.5,73 Z" id="Path"></path>
                <path d="M37.8,100 C37.8,101.4 36.7,102.4 35.3,102.4 C33.9,102.4 32.9,101.3 32.9,100 L32.9,92.6 L24.4,92.6 L24.4,109.7 L78.3,109.7 L78.3,92.6 L37.8,92.6 L37.8,100 Z" id="Path" fill="#E18B96" fill-rule="nonzero"></path>
                <path d="M95.5,68.1 L93.1,68.1 L93.1,43.6 C93.1,28.8 82.9,16 68.5,12.6 C67.6,3.2 60.7,0.3 51.5,0.3 C40.3,0.3 35.2,4.4 34.5,12.6 C20.1,16 9.9,28.8 9.9,43.6 L9.9,68.1 L7.5,68.1 C3.5,68.1 0.2,71.4 0.1,75.5 L0.1,100 C0.1,104 3.4,107.3 7.5,107.3 L9.9,107.3 L9.9,112.2 C9.9,119 15.4,124.5 22.2,124.5 L81,124.5 C87.8,124.5 93.2,119 93.3,112.2 L93.3,107.3 L95.7,107.3 C99.7,107.3 103,104 103.1,100 L103.1,75.5 C102.8,71.4 99.5,68.1 95.5,68.1 Z M9.8,102.4 L7.4,102.4 C6,102.4 5,101.3 5,100 L5,75.5 C5,74.1 6.1,73.1 7.4,73.1 L9.8,73.1 L9.8,102.4 Z M70.6,43.4 C70.7,43.3 70.9,43.3 71,43.3 C71.2,43.3 71.4,43.4 71.6,43.5 C72,43.7 72.3,44.2 72.7,44.8 C73.1,45.4 73.3,46 73.3,46.4 C73.3,46.8 73.2,47.2 72.9,47.3 L64.7,52.1 C64.3,52.3 63.9,52.4 63.5,52.4 C63.3,52.4 63.1,52.4 62.9,52.3 C62.3,52.1 61.8,51.7 61.5,51.2 C61.2,50.7 61.1,50.1 61.3,49.5 C61.5,48.9 61.9,48.4 62.4,48.1 L70.6,43.4 Z M65.1,36.9 C65.3,37.2 65.4,37.6 65.2,37.9 L60.4,46.1 C60.1,46.6 59.6,47 59,47.2 C58.8,47.3 58.6,47.3 58.4,47.3 C58,47.3 57.6,47.2 57.2,47 C56.7,46.7 56.3,46.2 56.1,45.6 C55.9,45 56,44.4 56.3,43.8 L61.1,35.6 C61.3,35.3 61.6,35.2 61.9,35.2 C62.4,35.2 63,35.4 63.6,35.8 C64.4,36.2 64.9,36.6 65.1,36.9 Z M51.4,5.3 C58.8,5.3 61.5,6.1 62.7,11.8 L40.2,11.8 C41.4,6.1 45.6,5.3 51.4,5.3 Z M53.7,33.7 L53.7,43.2 C53.7,43.8 53.5,44.4 53,44.8 C52.6,45.2 52,45.5 51.3,45.5 C50.7,45.5 50.1,45.3 49.7,44.8 C49.3,44.4 49,43.8 49,43.1 L49,33.6 C49,33.2 49.2,32.9 49.6,32.7 C50,32.5 50.6,32.4 51.3,32.4 C52,32.4 52.6,32.5 53,32.7 C53.6,33.1 53.7,33.4 53.7,33.7 Z M37.7,36.9 C37.9,36.5 38.4,36.2 39,35.8 C39.6,35.4 40.2,35.2 40.6,35.2 C40.6,35.2 40.6,35.2 40.6,35.2 C41.1,35.2 41.4,35.4 41.5,35.6 L46.3,43.8 C46.6,44.4 46.7,45 46.5,45.6 C46.3,46.2 45.9,46.7 45.4,47 C45,47.2 44.6,47.3 44.2,47.3 C44,47.3 43.8,47.3 43.6,47.2 C43,47 42.5,46.6 42.2,46.1 L37.4,37.9 C37.5,37.6 37.5,37.2 37.7,36.9 Z M30.1,44.8 C30.5,44.2 30.9,43.7 31.2,43.5 C31.4,43.4 31.6,43.3 31.8,43.3 C32,43.3 32.1,43.3 32.2,43.4 L40.4,48.2 C40.9,48.5 41.4,49 41.5,49.6 C41.6,50.2 41.6,50.8 41.3,51.3 C41,51.8 40.5,52.2 39.9,52.4 C39.7,52.4 39.5,52.5 39.3,52.5 C38.9,52.5 38.5,52.4 38.1,52.2 L29.9,47.4 C29.6,47.2 29.4,46.9 29.5,46.5 C29.5,46 29.7,45.5 30.1,44.8 Z M27.7,57.5 C30.2,56.8 39.3,54.4 51.4,54.4 C63.5,54.4 72.6,56.8 75.1,57.5 C75.5,57.6 75.7,57.9 75.8,58.3 C75.8,58.8 75.8,59.3 75.6,59.9 C75.4,60.6 75.1,61.1 74.9,61.3 C74.7,61.5 74.5,61.6 74.2,61.6 L74,61.6 C72.8,61.2 68.2,60 61.8,59.3 C61.6,59.3 61.4,59.3 61.2,59.3 C60.2,59.3 59.3,59.6 58.4,60 L53.1,63 C52.6,63.3 52.1,63.4 51.5,63.4 C50.9,63.4 50.4,63.3 49.9,63 L44.6,60 C43.8,59.5 42.8,59.3 41.8,59.3 C41.6,59.3 41.4,59.3 41.2,59.3 C34.7,60.1 30.2,61.3 29,61.6 L28.8,61.6 C28.5,61.6 28.2,61.5 28.1,61.3 C27.9,61 27.6,60.6 27.4,59.9 C27.2,59.2 27.2,58.7 27.2,58.3 C27.1,58 27.3,57.6 27.7,57.5 Z M83.2,112.2 C83.2,113.6 82.1,114.7 80.8,114.7 L22,114.7 C20.6,114.7 19.5,113.6 19.5,112.2 L19.5,77.9 C19.5,76.6 20.6,75.5 22,75.5 L80.8,75.5 C82.2,75.5 83.2,76.6 83.2,77.9 L83.2,112.2 L83.2,112.2 Z M97.9,100 C97.9,101.4 96.8,102.4 95.5,102.4 L93,102.4 L93,73 L95.4,73 C96.8,73 97.8,74.1 97.8,75.4 L97.8,100 L97.9,100 Z" id="Shape" fill="#D1435B" fill-rule="nonzero"></path>
                <rect id="Rectangle" fill="#E18B96" fill-rule="nonzero" x="24.5" y="80.4" width="53.9" height="7.3"></rect>
            </g>
        </g>
    </g>
</svg>
